X: 63
T:Harvest Home
M:4/4
L:1/4
R:hornpipe
Z:John Harvey
K:D
AF|DAFA DAFA|defe dcBA|eAfA gAfA|(3efe (3dcB (3ABA (3GFE|DAFA DAFA|defed
cBA|eAfAgecA|d2 f2 d2:|
cd|eA ~A2 fA ~A2|gAfA eA ~A2|eAfA gAfA|(3efe (3dcB (3ABA (3GFE|DAFA DAFA
|defe dcBA|eAfA gecA|d2 f2 d2:|

